symbols/web/videogame_asset/materialsymbolsoutlined/videogame_asset_gradN25_40px.svg

<svg xmlns="http://www.w3.org/2000/svg" height="40" width="40"><path d="M6.25 29.792q-1.083 0-1.854-.792-.771-.792-.771-1.833V12.833q0-1.083.771-1.854.771-.771 1.854-.771h27.5q1.083 0 1.854.771.771.771.771 1.854v14.334q0 1.041-.771 1.833t-1.854.792Zm0-2.625h27.5V12.833H6.25v14.334Zm5.833-1.792h2.625v-4.083h4.084v-2.625h-4.084v-4.084h-2.625v4.084H8v2.625h4.083Zm12.459-.5q.791 0 1.396-.583.604-.584.604-1.375 0-.834-.604-1.417-.605-.583-1.396-.583-.834 0-1.417.583-.583.583-.583 1.375 0 .833.583 1.417.583.583 1.417.583Zm3.916-5.833q.834 0 1.417-.584.583-.583.583-1.416 0-.792-.583-1.375-.583-.584-1.417-.584-.791 0-1.375.584-.583.583-.583 1.375 0 .833.583 1.416.584.584 1.375.584ZM6.25 27.167V12.833v14.334Z"/></svg>

<svg xmlns="http://www.w3.org/2000/svg" height="40" width="40"><path d="M6.25 29.792Q5.167 29.792 4.396 29Q3.625 28.208 3.625 27.167V12.833Q3.625 11.75 4.396 10.979Q5.167 10.208 6.25 10.208H33.75Q34.833 10.208 35.604 10.979Q36.375 11.75 36.375 12.833V27.167Q36.375 28.208 35.604 29Q34.833 29.792 33.75 29.792ZM6.25 27.167H33.75Q33.75 27.167 33.75 27.167Q33.75 27.167 33.75 27.167V12.833Q33.75 12.833 33.75 12.833Q33.75 12.833 33.75 12.833H6.25Q6.25 12.833 6.25 12.833Q6.25 12.833 6.25 12.833V27.167Q6.25 27.167 6.25 27.167Q6.25 27.167 6.25 27.167ZM12.083 25.375H14.708V21.292H18.792V18.667H14.708V14.583H12.083V18.667H8V21.292H12.083ZM24.542 24.875Q25.333 24.875 25.938 24.292Q26.542 23.708 26.542 22.917Q26.542 22.083 25.938 21.5Q25.333 20.917 24.542 20.917Q23.708 20.917 23.125 21.5Q22.542 22.083 22.542 22.875Q22.542 23.708 23.125 24.292Q23.708 24.875 24.542 24.875ZM28.458 19.042Q29.292 19.042 29.875 18.458Q30.458 17.875 30.458 17.042Q30.458 16.25 29.875 15.667Q29.292 15.083 28.458 15.083Q27.667 15.083 27.083 15.667Q26.5 16.25 26.5 17.042Q26.5 17.875 27.083 18.458Q27.667 19.042 28.458 19.042ZM6.25 27.167Q6.25 27.167 6.25 27.167Q6.25 27.167 6.25 27.167V12.833Q6.25 12.833 6.25 12.833Q6.25 12.833 6.25 12.833Q6.25 12.833 6.25 12.833Q6.25 12.833 6.25 12.833V27.167Q6.25 27.167 6.25 27.167Q6.25 27.167 6.25 27.167Z"/></svg>
